packages/ui/public/icons/share-outline-pink.svg

<svg width="18" height="18" viewBox="0 0 18 18" fill="none" xmlns="http://www.w3.org/2000/svg">
<path d="M2.3668 9.42844C2.1867 9.28019 2.09668 9.2061 2.06362 9.11791C2.0347 9.04056 2.0347 8.95584 2.06362 8.87849C2.09668 8.79031 2.1867 8.71614 2.3668 8.56796L8.61696 3.42501C8.92701 3.16987 9.08203 3.0423 9.21329 3.03917C9.32736 3.03646 9.43634 3.08457 9.50843 3.16948C9.59136 3.26718 9.59136 3.46321 9.59136 3.85525V6.89773C11.1664 7.16225 12.608 7.92841 13.6793 9.07888C14.8472 10.3331 15.4932 11.9561 15.4941 13.6385V14.0719C14.7199 13.1766 13.7532 12.4524 12.6602 11.949C11.6967 11.5053 10.655 11.2424 9.59136 11.1731V14.1411C9.59136 14.5332 9.59136 14.7292 9.50843 14.8269C9.43634 14.9118 9.32736 14.96 9.21329 14.9572C9.08203 14.9541 8.92701 14.8265 8.61696 14.5714L2.3668 9.42844Z" stroke="#91337B" stroke-width="2" stroke-linecap="round" stroke-linejoin="round"/>
</svg>

<svg width="18" height="18" fill="none" xmlns="http://www.w3.org/2000/svg"><path d="M2.367 9.428c-.18-.148-.27-.222-.303-.31a.341.341 0 0 1 0-.24c.033-.088.123-.162.303-.31l6.25-5.143c.31-.255.465-.383.596-.386a.375.375 0 0 1 .295.13c.083.098.083.294.083.686v3.043a7.215 7.215 0 0 1 4.088 2.18 6.693 6.693 0 0 1 1.815 4.56v.434a8.374 8.374 0 0 0-2.834-2.123 8.691 8.691 0 0 0-3.069-.776v2.968c0 .392 0 .588-.083.686a.375.375 0 0 1-.295.13c-.131-.003-.286-.13-.596-.386l-6.25-5.143Z" stroke="#91337B" stroke-width="2" stroke-linecap="round" stroke-linejoin="round"/></svg>
